symbols/web/loyalty/materialsymbolsoutlined/loyalty_wght500gradN25_20px.svg

<svg xmlns="http://www.w3.org/2000/svg" height="20" width="20"><path d="m10.833 14.479 2.834-2.854q.229-.229.343-.552.115-.323.115-.656 0-.709-.469-1.177-.468-.469-1.177-.469-.354 0-.739.219-.386.218-.907.739-.5-.521-.916-.739-.417-.219-.771-.219-.708 0-1.177.469-.469.468-.469 1.177 0 .333.125.656t.354.552Zm-.125 3.875q-.375 0-.708-.135-.333-.136-.625-.427l-7.146-7.146q-.291-.292-.437-.625-.146-.333-.146-.709V3.521q0-.771.552-1.323.552-.552 1.323-.552h5.791q.376 0 .719.135.344.136.636.407l7.145 7.145q.563.563.563 1.334 0 .771-.563 1.333l-5.791 5.792q-.271.27-.604.416-.334.146-.709.146Zm.021-1.875 5.771-5.791-7.188-7.167H3.521v5.791ZM5.562 6.771q.5 0 .865-.354.365-.355.365-.875 0-.521-.365-.875-.365-.355-.885-.355-.5 0-.854.355-.355.354-.355.875 0 .52.355.875.354.354.874.354Zm-2.041-3.25Z"/></svg>

<svg xmlns="http://www.w3.org/2000/svg" height="20" width="20"><path d="M10.833 14.479 13.667 11.625Q13.896 11.396 14.01 11.073Q14.125 10.75 14.125 10.417Q14.125 9.708 13.656 9.24Q13.188 8.771 12.479 8.771Q12.125 8.771 11.74 8.99Q11.354 9.208 10.833 9.729Q10.333 9.208 9.917 8.99Q9.5 8.771 9.146 8.771Q8.438 8.771 7.969 9.24Q7.5 9.708 7.5 10.417Q7.5 10.75 7.625 11.073Q7.75 11.396 7.979 11.625ZM10.708 18.354Q10.333 18.354 10 18.219Q9.667 18.083 9.375 17.792L2.229 10.646Q1.938 10.354 1.792 10.021Q1.646 9.688 1.646 9.312V3.521Q1.646 2.75 2.198 2.198Q2.75 1.646 3.521 1.646H9.312Q9.688 1.646 10.031 1.781Q10.375 1.917 10.667 2.188L17.812 9.333Q18.375 9.896 18.375 10.667Q18.375 11.438 17.812 12L12.021 17.792Q11.75 18.062 11.417 18.208Q11.083 18.354 10.708 18.354ZM10.729 16.479 16.5 10.688 9.312 3.521H3.521V9.312ZM5.562 6.771Q6.062 6.771 6.427 6.417Q6.792 6.062 6.792 5.542Q6.792 5.021 6.427 4.667Q6.062 4.312 5.542 4.312Q5.042 4.312 4.688 4.667Q4.333 5.021 4.333 5.542Q4.333 6.062 4.688 6.417Q5.042 6.771 5.562 6.771ZM3.521 3.521Z"/></svg>
